X: 6596
T: Caucus, The
R: reel
M: 4/4
K: Gmajor
d|"G"eddB g3 d|"C"egdB "D"A3 d|"G"eddB gabg|"D"abge "G"g3:|
a|"G"b ~g3 "D"agea|"G"gage dega|b ~g3 "D"a2 bg|abge "G"g3 a|
b ~g3 "D"agea|"G"gage dBGA|B2 BG "D"AGEG|"G"GEDE Gd|
"G"edgd ed (3Bcd|"C"egdB "D"A3d|"G"edgd ed (3Bcd|"C"gabg "D"a2gd|
"G"edgd ed (3Bcd|"C"egdB "D"A2GA|"G"B2 BG "D"AGEG|"G"GEDE G3:|

